X: 10942
M: 2/4
L: 1/16
K: D
dcde fefg | ^gaba =gfed | cBcd efgf | e2a2 A2Bc |\
dcde fefg | ^gaba =gfed | cBge dcBc | (e4 d2) H|]
|:\
e>^de>d e>gf>e | d>cd>c d>fe>d | c>Bc>d e>fg>f | e2a2 A2Bc |\
e>^de>d e>gf>e | d>cd>c d>fe>d | c>Bg>e d>cB>c | (e4 "^D.C."d2) :|


